X: 1471
T: After The Sun Goes Down
M:C|
L:1/8
N:"collected by J. O'Neill"
B:O'Neill's 1471
Z:"Transcribed by Bob Safranek, rjs@gsp.org"
Z:Ornaments (~) are turns.
K:G
G2 (BG) DGBG | egfa gedB | G2 (BG)         DGBG | AcBA G(E ~E2) |
G2 (BG) DGBG | egfa gedB | ((3efg) ((3fga) gedB | AcBA GE   E2  ||
gfeg    fedB | gfga bede | gfeg            fedB | AcBA G(E ~E2) |
gfeg    fedB | gfga beeg | bgaf            gedB | AcBA GE   E2  |]


